-----BEGIN PGP PUBLIC KEY BLOCK-----

mQINBGi7UNIBEAC8sIe/7xV83WttT8QiQ8MLXHoi0Gez/W/IhJW59093xlIpar7i
MPAN1qr+qEQF0VK/6oDMW10fUqrq5lGmrnLpZShAdDiKGRtyPP/CD2uEtDnDca0I
bUlvCm2iisnpcozbQDxWdTeTUzwtcvE5jQpEWTEtuqSAUrkgECjceqLS9eNmEMYC
IZO/H0Zc0+Pp+tCTh2V77HUZiJpC6u7RtMijdfyUDaBua3XFEpaw1KbH/8jIRSk/
6JQiPpELCq8e1y5T3P3lRDNDiK7E62jJhHf7j8i2kKf5BG8uKTtmZUZ4WQslTHcc
to7UQnr99tzhPJhX/a+L/ZLofTJt19nLO3pQO3BSRngOJc+JqSkke15PEVM7q53X
zyP6rDRh//WDzMbzh2JkiFjTB2s7Fx7mQO125ld6MBCNBNdSJmjNFigeo1CRujIy
2E+/iCyVn+hkq1fxl1j6LR3CmVySoR4IL9hcrsaecWOluXrd6chm6850sHjeZkuu
hOiG7CHusc/mRlhA48lSIghtRNELoCx7hXQ0iI9ZXTaMuiYtTMdZwc/NIB6BhKFF
FuYva00oC17c6O+vgUo/3EETjg3cIOrEdYxJCqYecmkNTrlEvkASuWsmYJI7q7Ph
Yp9oIF7B0LjHr2uDZme13KlU2qrcA9KxY0Dl6Jt2wNRJJTDmsQukMR1qUwARAQAB
tCpNYXJpYW4gUGxpdmVsaWMgPG1hcmlhbnBsaXZlbGljQGdtYWlsLmNvbT6JAlcE
EwEKAEEWIQSGEYzaC7d27zAaZCvLksU9KBzMAAUCaLtQ0gIbAwUJBaRPzgULCQgH
AgIiAgYVCgkICwIEFgIDAQIeBwIXgAAKCRDLksU9KBzMAGeuD/4zz8ngKrXfukeW
5xkNQON78Ui1WKrOdvegFQusvMhnMvNBi907pSB7yZlwP6w6kh0yufkdiQ7+YjvB
X481iWMCCTl/wM92kEMd1cdG13n2cxt7bNHdyTByYQYyobdGLgwxmgmxcInnyVx6
/L5TqD3+MEX9pUOmsyouYCb44YNpUaTkN9PFb3dw73fzLmCzmh7zyJHjBQU9+oUV
sf5XJcPnteE9skHltj3l1l2x+0VuM2yZ9GoWlvVEoYynsxiI2k0EbMkBM9br7AZB
UMU9nGQjWRNMAUxLgJSXnC91ovTXkGVlUv4fV5pj3ynRnCR205lhGfvg8DbF1Gy8
zgbuCpwAAHy+2iCj8Ndng1YgZ7TtMfswmib0Q+4/1rvCeeuKwD/DLh9JR2frmnV3
mVlF3+8+mcH57YTI7e8qECNAe1x+BPWBRENcRxJfKE5/aEmrZUnKPmypr0YdXzKo
fA2AIzUPv9zUO+kbSShy8bEnfqVdRM7B3YbvtQMHm6CorkaFDWPvrQWLpTLI0s4V
wCrV/jvupcbjgsyTvT+v5RTcSLWrfHZCHHsnpRoXHS9lCRm4qq80fagv8OhlVSzc
EWBVvEc8NfoZU8N7u3Xt45KB0x1GKKW7xf/6Jdmmnhvo0Qe7HanM5/fxITsZKJL1
Z7HV9JtIJMCVmXGijCVIGN03/kNpL7kCDQRou1DSARAAxbfOyBbfK0Koz8ipy0H0
t77x6dMs4EEG7VFqt2Ikj1Wc5uXMLUlpJ8sia6GwObwfkT55S73cY2DDa4EoUEqL
n/6GxzF7gI3ieBV136mjPpdTvb51rHsDnxCZBh+Cvw1QH2jJjUq2GOGTqE8GXCJH
nMest1p18lutF//UZaLOo+PG4jEr2wLg/O+GAkaoGf6QE0pY/WPSn8f/zmIgKtbJ
QzFBoVjE8kFCotBSmkv+qdplzJJfsBhgn/rvLIuMj/Odtx8X6uGtFUNppvmq7LGZ
MkyStiTFgUFo/EpLC83vaDRzTCrzFeMpkwg7QhBhq4Cgxs12Jj8RvRBTFnvwY+uH
mD6C2qRFPIcbL6DYOCvCYFYoAjCwULtlGMWYmCJqeGMYYwaChKsZQiI7bEWOYVXB
g21kfqXuIrptGo0ToDaqfv6IVftycgYPPEQwCH/doWl69l+3F485xs6Hhip9aWAx
Xz+zzXKh8A1nk2BQxqIdt64wBh4MJ8FuRip5xHdSYAjwmUg2Us8OuOf34XWEAPQ1
usKnAPuTioZpdyuUwsIX/nZHfRpP/QP+U0oGAOnC5cVP2eySYEKPNfPACNrA0WWB
aCUdwofW1cCYMNiXPNLMkuRWVSo49nn0fi2Bti5plVJw8A7Tw1T/gV+zgcu5RXKq
Ggej0y+wyBIuqnNq9MU2Rl8AEQEAAYkCPAQYAQoAJhYhBIYRjNoLt3bvMBpkK8uS
xT0oHMwABQJou1DSAhsMBQkFpE/OAAoJEMuSxT0oHMwA/dMQAJfFhA6/iBIRp0rm
0lR2EijXdkBRAmTV0tq2XlSl/g9j13DLt3UpDgzn8jkV1tOGlxTjEksmEkC/uSpa
tSQU+CI7Sbj1bSDlJZJsVrTr0G4WI4frj6v/3zfDycY63f7tFGf1jbCdatCpSKUz
VXaAqPAP5qqcKJqLAoNj81KzZRmmj6gVRmt3+k+UYe97RBlQbKu/6nEG6CKMQUE/
alt+MvvkZd/OwymtYXpmpmcJ8h9DKaEsIjYVjhsb6FIEJr7j5Ws0ow0d/K9iG9Do
g3Eu/HnJD5d9uprC0VR61mwKfaYgOdShkXYXm9rTl0c1+tU8jxqe82GAgocHmkCD
/E7AjkCX0M9BctpO6hNxjr9kxljnHZH+Wkemoqd2LCbsd6SMZbqZ1F1Pw0PkVod2
uuKzEHtXZ9NFzKZ/HTltUsb7jTB8BGVXvZ0CjkwYCE9WyYHs/hke6KNvEVnBIfFe
eupcZiWVfH1TQ/82i7Rnf0b+8/SsWZmMi6BGuYJpA9I5iOinwJk0jvwFXnzUJ39c
cSwttUInA0rAE2xquEYHQtXgLkOx+ZDSVlkPIXGsFX39mXkAANq0dQaNI8TMFK5X
LljR0hsRZ40BiySb4ZYppKNliXRVu2gnZkV2PAzHRQhfPwQi/pHrGYhMB4B/maeY
VCnIk8l64NcjUUSZ3QQKuPPexSsx
=zbCY
-----END PGP PUBLIC KEY BLOCK-----
